X:120
T: Himmelsfreud (2-22) S. 69
N: P0895
O: Lothringen
S: PINCK, Louis: Verklingende Weisen, Bd 2, Metz 1928]
R: geistliche, religiöse Lieder, spttisch]
M: 4/4
L: 1/8
K: F
 | c2B2_A2F2 | F2_E2E2
E2 | c2BB_A2AG | F2F2z2
C2 | C2F2F2F2 | E2F2G2
G2 | G2G2A2G2 | G4F2
C2 | C2F2FFF2 | E2F2G2
G2 | G2G2A2G2 | G4F2z2
C2F2F2F2 | E2F2G2z2
ccE2E2E2 | G2F2F2z2

